dist/img/logo/logo.svg

<svg width="108" height="24" viewBox="0 0 108 24" fill="none" xmlns="http://www.w3.org/2000/svg">
<path d="M46.6181 1.38687C46.6181 0.647079 47.2427 0.0241014 47.9804 0.0241014C48.72 0.0241014 49.3428 0.648933 49.3428 1.38687V20.9606H59.0219C58.7439 20.7288 58.4677 20.4748 58.2138 20.2208C56.0656 18.0719 54.7477 15.1369 54.7477 11.8792C54.7477 9.10549 55.6949 6.56351 57.2889 4.55367C57.958 3.69893 58.7439 2.95914 59.6225 2.31206C61.5632 0.902945 63.9894 0.0704539 66.5529 0.0704539C67.9393 0.0704539 69.3258 0.324466 70.6195 0.81024C73.1385 1.73544 74.0856 2.59018 75.8632 4.39236L87.1605 15.6931C88.7082 17.2413 90.3245 19.2289 92.2892 20.1522C93.4681 20.7066 94.7841 21.007 96.1705 21.007C98.6895 21.007 100.953 19.9909 102.615 18.35C103.955 17.0095 104.878 15.2296 105.179 13.2661H96.8619C96.1223 13.2661 95.4995 12.6413 95.4995 11.9033C95.4995 11.1635 96.1242 10.5406 96.8619 10.5406H106.634C107.373 10.5406 107.996 11.1654 107.996 11.9033C107.996 15.161 106.656 18.1201 104.53 20.2449C102.382 22.3938 99.4476 23.7121 96.1909 23.7121C94.3893 23.7121 92.6803 23.2968 91.1549 22.5792C88.6822 21.4241 87.0882 19.3902 85.1939 17.5175L73.8966 6.2168C72.6491 4.96899 71.424 3.97519 69.715 3.32811C68.7215 2.95914 67.6594 2.77373 66.5733 2.77373C64.7475 2.77373 63.0386 3.32811 61.6058 4.2533C60.3806 5.06169 59.389 6.12595 58.6716 7.39601C57.9321 8.71242 57.5169 10.2383 57.5169 11.8792C57.5169 14.3989 58.5326 16.6628 60.173 18.3259C61.8134 19.9668 64.1006 20.9829 66.6177 20.9829C67.8874 20.9829 69.1367 20.7047 70.2674 20.2208C72.208 19.3661 73.4554 17.9329 74.8882 16.4774L78.7232 12.6413L80.6638 14.5825L76.8066 18.4409C75.0272 20.2208 73.7576 21.6763 71.3554 22.7387C69.8763 23.3858 68.26 23.7325 66.6418 23.7325H47.7914C47.1667 23.5934 46.7052 23.0391 46.7052 22.392V1.47957L46.6181 1.38687ZM27.8362 10.4905H27.3042C26.5647 10.4905 25.9419 11.1153 25.9419 11.8533C25.9419 12.5912 26.5665 13.216 27.3042 13.216H41.7433C42.4829 13.216 43.1056 12.5912 43.1056 11.8533C43.1056 11.1153 42.481 10.4905 41.7433 10.4905H27.8362ZM27.8362 0.0222473H27.3042C26.5647 0.0222473 25.9419 0.647079 25.9419 1.38501C25.9419 2.12294 26.5665 2.74778 27.3042 2.74778H41.7433C42.4829 2.74778 43.1056 2.12294 43.1056 1.38501C43.1056 0.647079 42.481 0.0222473 41.7433 0.0222473H27.8362Z" fill="white"/>
<path d="M41.7453 20.9365C42.4849 20.9365 43.1077 21.5613 43.1077 22.2993C43.1077 23.0391 42.4831 23.662 41.7453 23.662H26.2442C23.2415 23.5693 20.5149 22.3679 18.4816 20.4266L11.9664 13.9113V13.8891H7.90163V13.8668C7.2084 13.7741 6.67644 13.2197 6.67644 12.5263C6.67644 11.8329 7.2084 11.2562 7.90163 11.1858V11.1617H15.8941C18.2277 11.1617 20.0979 9.28904 20.0979 6.95658C20.0979 4.62413 18.2258 2.75148 15.8941 2.75148H2.72655V22.3234C2.72655 23.0632 2.10191 23.6861 1.3642 23.6861C0.626495 23.6861 0 23.0632 0 22.3234V0.832491C0.0685808 0.647081 0.161258 0.509878 0.322515 0.346717C0.485627 0.18541 0.693223 0.0686017 0.900819 0H15.8477C19.6827 0 22.7781 3.09635 22.7781 6.93248C22.7781 10.7686 19.6827 13.865 15.8477 13.865H15.7328L20.4464 18.5799C21.9718 19.9668 23.9347 20.8215 26.1293 20.9365H41.7453Z" fill="white"/>
<path d="M91.5739 0.969693C93.0067 0.368964 94.5767 0.0222473 96.1948 0.0222473C96.9344 0.0222473 97.5572 0.647079 97.5572 1.38501C97.5572 2.12294 96.9325 2.74777 96.1948 2.74777C94.9251 2.74777 93.7222 3.00179 92.6379 3.46346C91.0438 4.15689 90.0503 5.10434 88.8715 6.28354L84.1579 10.9985L82.2173 9.05728L86.9308 4.34416C88.41 2.86458 89.5184 1.82629 91.5739 0.969693Z" fill="#FFC600"/>
</svg>

<svg width="108" height="24" fill="none" xmlns="http://www.w3.org/2000/svg"><path d="M46.618 1.387c0-.74.625-1.363 1.362-1.363.74 0 1.363.625 1.363 1.363V20.96h9.679a12.261 12.261 0 01-.808-.74c-2.148-2.15-3.466-5.084-3.466-8.342 0-2.774.947-5.315 2.54-7.325a11.89 11.89 0 012.335-2.242A11.825 11.825 0 0166.553.07c1.386 0 2.773.254 4.067.74 2.518.925 3.466 1.78 5.243 3.582L87.16 15.693c1.548 1.548 3.165 3.536 5.13 4.46a9.092 9.092 0 003.88.854 9.128 9.128 0 006.445-2.657 9.17 9.17 0 002.564-5.084h-8.317a1.38 1.38 0 01-1.362-1.363c0-.74.624-1.362 1.362-1.362h9.772a1.38 1.38 0 011.362 1.362c0 3.258-1.34 6.217-3.466 8.342-2.148 2.149-5.082 3.467-8.34 3.467-1.8 0-3.51-.415-5.035-1.133-2.473-1.155-4.067-3.189-5.961-5.062l-11.297-11.3c-1.248-1.248-2.473-2.242-4.182-2.889a9.012 9.012 0 00-3.142-.554 9.15 9.15 0 00-4.967 1.48 9.108 9.108 0 00-2.934 3.142 9.109 9.109 0 00-1.155 4.483 9.136 9.136 0 002.656 6.447 9.094 9.094 0 006.445 2.657c1.27 0 2.519-.278 3.65-.762 1.94-.855 3.187-2.288 4.62-3.744l3.835-3.836 1.94 1.941-3.856 3.859c-1.78 1.78-3.05 3.235-5.452 4.298a11.81 11.81 0 01-4.713.994h-18.85a1.383 1.383 0 01-1.087-1.341V1.48l-.087-.093zM27.836 10.49h-.532a1.38 1.38 0 00-1.362 1.362c0 .738.625 1.363 1.362 1.363h14.44a1.38 1.38 0 001.362-1.363c0-.738-.625-1.362-1.363-1.362H27.836zm0-10.469h-.532a1.38 1.38 0 00-1.362 1.363c0 .738.625 1.363 1.362 1.363h14.44a1.38 1.38 0 001.362-1.363c0-.738-.625-1.363-1.363-1.363H27.836z" fill="#fff"/><path d="M41.745 20.936c.74 0 1.363.625 1.363 1.363a1.38 1.38 0 01-1.363 1.363h-15.5a11.725 11.725 0 01-7.763-3.235l-6.516-6.516v-.022H7.902v-.022c-.694-.093-1.226-.647-1.226-1.34 0-.694.532-1.27 1.226-1.341v-.024h7.992a4.19 4.19 0 004.204-4.205 4.192 4.192 0 00-4.204-4.206H2.727v19.572a1.38 1.38 0 01-1.363 1.363A1.382 1.382 0 010 22.323V.833A1.28 1.28 0 01.323.346 1.5 1.5 0 01.9 0h14.947a6.922 6.922 0 016.93 6.932 6.922 6.922 0 01-6.93 6.933h-.115l4.713 4.715a9.081 9.081 0 005.683 2.357h15.616z" fill="#fff"/><path d="M91.574.97a11.97 11.97 0 014.62-.948c.74 0 1.363.625 1.363 1.363s-.624 1.363-1.362 1.363c-1.27 0-2.473.254-3.557.715-1.594.694-2.588 1.641-3.767 2.82l-4.713 4.715-1.94-1.94 4.713-4.714c1.479-1.48 2.587-2.518 4.643-3.374z" fill="#FFC600"/></svg>
